extensions/images/svgs/flag.svg

<svg fill="none" height="12" viewBox="0 0 12 12" width="12" xmlns="http://www.w3.org/2000/svg"><path d="m4.8112.389521c.70746-.519361 1.67017-.519361 2.37761 0l.69565.510705c.11483.084293.24833.139594.3891.161174l.85305.13079c.86746.13299 1.54819.81373 1.68119 1.68121l.1308.85304c.0216.14079.0769.27428.1612.3891l.5107.69566c.5193.70746.5193 1.67016 0 2.37761l-.5107.69565c-.0843.11483-.1396.24833-.1612.3891l-.1308.85305c-.133.86746-.81373 1.54819-1.68119 1.68119l-.85305.1308c-.14077.0216-.27427.0769-.3891.1612l-.69565.5107c-.70745.5193-1.67015.5193-2.37761 0l-.69566-.5107c-.11482-.0843-.24831-.1396-.3891-.1612l-.85304-.1308c-.86748-.133-1.54822-.81373-1.68121-1.68119l-.13079-.85305c-.02158-.14077-.076881-.27427-.161174-.3891l-.510705-.69565c-.519361-.70745-.519361-1.67015 0-2.37761l.510705-.69566c.084293-.11482.139594-.24831.161174-.3891l.13079-.85304c.13299-.86748.81373-1.54822 1.68121-1.68121l.85304-.13079c.14079-.02158.27428-.076881.3891-.161174z" fill="#5b28eb"/><path d="m8.46023 4.28975c.21968.21967.21968.57583 0 .7955l-2.81248 2.81248c-.21967.21967-.57583.21967-.7955 0l-1.3125-1.31248c-.21967-.21967-.21967-.57583 0-.7955.21967-.21966.57583-.21966.7955 0l.91475.91476 2.41478-2.41476c.21968-.21967.57578-.21967.79545 0z" fill="#fff"/></svg>

<svg width="12" height="12" viewBox="0 0 12 12" fill="none" xmlns="http://www.w3.org/2000/svg">
<path d="M4.8112 0.389521C5.51866 -0.12984 6.48137 -0.12984 7.18881 0.389521L7.88446 0.900226C7.99929 0.984519 8.13279 1.03982 8.27356 1.0614L9.12661 1.19219C9.99407 1.32518 10.6748 2.00592 10.8078 2.8734L10.9386 3.72644C10.9602 3.86723 11.0155 4.00072 11.0998 4.11554L11.6105 4.8112C12.1298 5.51866 12.1298 6.48136 11.6105 7.18881L11.0998 7.88446C11.0155 7.99929 10.9602 8.13279 10.9386 8.27356L10.8078 9.12661C10.6748 9.99407 9.99407 10.6748 9.12661 10.8078L8.27356 10.9386C8.13279 10.9602 7.99929 11.0155 7.88446 11.0998L7.18881 11.6105C6.48136 12.1298 5.51866 12.1298 4.8112 11.6105L4.11554 11.0998C4.00072 11.0155 3.86723 10.9602 3.72644 10.9386L2.8734 10.8078C2.00592 10.6748 1.32518 9.99407 1.19219 9.12661L1.0614 8.27356C1.03982 8.13279 0.984519 7.99929 0.900226 7.88446L0.389521 7.18881C-0.12984 6.48136 -0.12984 5.51866 0.389521 4.8112L0.900226 4.11554C0.984519 4.00072 1.03982 3.86723 1.0614 3.72644L1.19219 2.8734C1.32518 2.00592 2.00592 1.32518 2.8734 1.19219L3.72644 1.0614C3.86723 1.03982 4.00072 0.984519 4.11554 0.900226L4.8112 0.389521Z" fill="#5B28EB"/>
<path d="M8.46023 4.28975C8.67991 4.50942 8.67991 4.86558 8.46023 5.08525L5.64775 7.89773C5.42808 8.1174 5.07192 8.1174 4.85225 7.89773L3.53975 6.58525C3.32008 6.36558 3.32008 6.00942 3.53975 5.78975C3.75942 5.57009 4.11558 5.57009 4.33525 5.78975L5.25 6.70451L7.66478 4.28975C7.88446 4.07008 8.24056 4.07008 8.46023 4.28975Z" fill="white"/>
</svg>
